X:1
T:Freeman's Morris
C:Tom Graves 1994
M:6/8
L:1/8
Q:3/8=120
K:GDor % 1 flat
D|:G2 B A2 G|E2 F D3|d3 c2 B|A>Bc F2 F|
G2 B A2 G|E2 F D3|d3 c2 B|1 A/B/ c2 z2 D :|2 A/B/ c3 z c|]
d2 d d>cB|c2 f d3|B2 B B>AG|A3{BA} D3|
d2 d d>cB|c2 f d3|B>BG A2 F|{GA}G G3 z2:|
